X:1
T: The Cashmere Shawl
C:Janette Gibb
R:Reel
Q: 232
K:G
M:4/4
L:1/8
|:dc|Bc de d2 g2|a2 g2 e2 g2|de dB GA BG|B2 A2 A2 dc|
Bc de d2 g2|a2 g2 ef ge|de dB GA BG|A2 F2 G2 d2|
d2 g2 e2 g2|de dc Bc d2|e2 g2 d2 G2|B2 A2 A2 d2|
d2 g2 e2 g2|de dc Bc d2|e2 g2 d2 g2|a4 g2:|
